src/assets/background/invite-title1.svg

<svg width="320" height="23" viewBox="0 0 320 23" fill="none" xmlns="http://www.w3.org/2000/svg">
<path d="M80.8873 4.93698L81.3183 1.94229L80.5546 1.05316H86.5548L86.0093 4.93698H87.0185L86.653 7.66436H85.6112L85.1529 10.9372L85.9494 10.6917L85.4911 13.8718L84.7275 14.1119L83.8002 20.9412C83.7137 21.5098 83.4204 22.0265 82.9765 22.3922C82.5502 22.7529 82.0075 22.9467 81.4492 22.9377H76.709L78.7545 20.2103L79.3655 15.8083L77.6254 16.3538L78.0836 13.1464L79.7964 12.6009L80.4946 7.62071H78.8582L79.2236 4.89333L80.8873 4.93698ZM93.6187 3.52964H96.2752L96.4007 2.76596L95.2388 1.60409H101.419L101.141 3.52964H104.872L104.474 6.43158H100.748L100.377 8.8753H103.405L103.006 11.7772H99.9844L99.6462 14.221H102.668L102.243 17.1229H99.2208L98.8826 19.5666H102.641L102.243 22.4413H90.9405L90.8804 22.9268H86.113L88.464 6.12611L87.4876 6.43158L87.9785 2.95144L93.9787 0.993164L93.6187 3.52964ZM91.3605 19.5666H94.0442L94.3824 17.1229H91.6932L91.3605 19.5666ZM92.1241 14.221H94.7806L95.1133 11.7772H92.4569L92.1241 14.221ZM92.8551 8.8753H95.5443L95.8825 6.43158H93.2206L92.8551 8.8753Z" fill="url(#paint0_linear_1237_44438)"/>
<path d="M109.054 4.29299L108.105 3.20204H118.862L119.015 2.11109L118.033 0.949219H125.549L125.217 3.18023H132.701L132.302 6.08217H113.909L110.276 22.9156H105.072L109.054 4.29299Z" fill="url(#paint1_linear_1237_44438)"/>
<path d="M133.092 21.8902L135.072 11.1389H137.914L135.901 21.8902H133.092ZM146.08 4.38591L143.178 4.63135L142.839 7.16236H146.112L145.681 10.2825H142.354L140.581 22.9921H136.397L138.17 10.2825H134.745L135.17 7.16236H138.656L138.961 4.98046L135.688 5.2532L136.119 2.13855L146.483 1.25488L146.08 4.38591ZM141.498 21.8902L142.534 11.1389H145.376L144.285 21.8902H141.498ZM149.347 22.8994H144.792L147.7 14.8754H151.982L149.347 22.8994ZM159.166 13.7954H146.32L147.88 2.76583L147.149 1.54397H160.895L159.166 13.7954ZM155.347 10.8607L156.231 4.47863H151.834L150.945 10.8607H155.347ZM158.336 22.9594H154.06L153.482 14.9245H157.758L158.336 22.9594Z" fill="url(#paint2_linear_1237_44438)"/>
<path d="M161.965 22.9916L167.343 13.4894H164.469L164.9 10.5547H185.802L184.335 20.9733C184.259 21.5371 183.97 22.0505 183.528 22.4079C183.093 22.7875 182.534 22.9951 181.957 22.9916H175.896L178.624 20.1496L179.54 13.4894H173.147L167.769 22.9916H161.965ZM168.511 9.69832H162.696L169.143 1.6962L168.565 0.99251H175.531L168.511 9.69832ZM183.664 0.970703L188.246 9.69832H182.431L177.849 0.970703H183.664Z" fill="url(#paint3_linear_1237_44438)"/>
<path d="M199.843 10.8602L200.002 9.69832H191.901L192.207 7.38005H200.334L200.427 6.79638H206.231L206.138 7.38005H214.266L213.96 9.69832H205.778L205.626 10.8602H215.493L215.188 13.1839H211.124L210.938 14.3458H214.424L214.053 16.9422H210.573L210.027 20.9733C209.935 21.5383 209.645 22.052 209.208 22.4219C208.771 22.7919 208.216 22.9938 207.644 22.9916H201.622L204.349 20.1496L204.78 16.9422H189.703L190.069 14.3458H205.162L205.347 13.1839H189.676L189.981 10.8602H199.843ZM198.256 2.13257H203.973L203.667 4.4563H201.284L202.26 6.19637H197.618L196.762 4.66901L195.872 6.19637H190.652L193.216 1.76708L192.545 0.970703H198.933L198.256 2.13257ZM200.7 21.2897H194.318L191.901 17.8041H198.289L200.7 21.2897ZM210.448 2.13257H216.742L216.437 4.4563H213.469L214.451 6.19637H209.804L208.947 4.66901L208.064 6.19637H202.838L205.407 1.76708L204.736 0.970703H211.118L210.448 2.13257Z" fill="url(#paint4_linear_1237_44438)"/>
<path d="M226.485 21.9658L217.719 22.544L218.117 19.6421L226.915 19.0639L226.485 21.9658ZM219.732 8.05073L223.708 1.78321L223.064 1.01953H229.441L224.952 8.04527H228.437L223.986 15.0165H227.466L227.074 17.9184H218.346L218.744 15.0165L221.341 10.9527H219.328L219.732 8.05073ZM237.787 22.9913L237.023 21.6767L236.139 22.9913H231.192L234.579 17.4602L233.178 15.0165L230.996 22.9913H226.714L231.819 4.47786H230.046L230.445 1.57593H244.878L244.48 4.47786L242.587 7.92528H244.573L244.142 10.8327L239.865 17.3075L243.078 22.9913H237.787ZM236.079 4.47786L234.154 11.4436H236.598L237.389 12.9055L238.676 10.8327H236.199L238.981 4.47786H236.079Z" fill="url(#paint5_linear_1237_44438)"/>
<path d="M252.139 10.1572L258.461 16.4793H282.756L285.98 13.2556H297.07L299.841 16.0266H319.636" stroke="url(#paint6_linear_1237_44438)" stroke-miterlimit="10"/>
<path d="M257.413 9.16992H255.346L260.659 14.5865H262.721L257.413 9.16992Z" fill="url(#paint7_linear_1237_44438)"/>
<path d="M260.681 9.16992H258.613L263.926 14.5865H265.988L260.681 9.16992Z" fill="url(#paint8_linear_1237_44438)"/>
<path d="M263.948 9.16992H261.881L267.194 14.5865H269.256L263.948 9.16992Z" fill="url(#paint9_linear_1237_44438)"/>
<path d="M267.21 9.16992H265.148L270.461 14.5865H272.523L267.21 9.16992Z" fill="url(#paint10_linear_1237_44438)"/>
<path d="M270.476 9.16992H268.414L273.727 14.5865H275.789L270.476 9.16992Z" fill="url(#paint11_linear_1237_44438)"/>
<path d="M284.746 16.8386L286.879 14.7549H296.381L298.699 16.8004L284.746 16.8386Z" fill="url(#paint12_linear_1237_44438)"/>
<path d="M68.3179 10.1575L62.0013 16.4796H37.7058L34.4821 13.2558H23.3925L20.6215 16.0268H0.826172" stroke="url(#paint13_linear_1237_44438)" stroke-miterlimit="10"/>
<path d="M63.0475 9.16992H65.1148L59.8019 14.5865H57.74L63.0475 9.16992Z" fill="url(#paint14_linear_1237_44438)"/>
<path d="M59.7801 9.16992H61.8475L56.5345 14.5865H54.4727L59.7801 9.16992Z" fill="url(#paint15_linear_1237_44438)"/>
<path d="M56.5145 9.16992H58.5819L53.2689 14.5865H51.207L56.5145 9.16992Z" fill="url(#paint16_linear_1237_44438)"/>
<path d="M53.2524 9.16992H55.3143L50.0014 14.5865H47.9395L53.2524 9.16992Z" fill="url(#paint17_linear_1237_44438)"/>
<path d="M49.9829 9.16992H52.0448L46.7318 14.5865H44.6699L49.9829 9.16992Z" fill="url(#paint18_linear_1237_44438)"/>
<path d="M35.7131 16.8386L33.5748 14.7549H24.078L21.7598 16.8004L35.7131 16.8386Z" fill="url(#paint19_linear_1237_44438)"/>
<defs>
<linearGradient id="paint0_linear_1237_44438" x1="63.6557" y1="8.20982" x2="242.097" y2="36.8146" gradientUnits="userSpaceOnUse">
<stop offset="0.03" stop-color="white"/>
<stop offset="0.05" stop-color="#F2FCFE"/>
<stop offset="0.11" stop-color="#C3F1F9"/>
<stop offset="0.17" stop-color="#9AE8F6"/>
<stop offset="0.24" stop-color="#79E0F2"/>
<stop offset="0.31" stop-color="#60DAF0"/>
<stop offset="0.38" stop-color="#4DD6EE"/>
<stop offset="0.45" stop-color="#43D4ED"/>
<stop offset="0.53" stop-color="#3FD3ED"/>
<stop offset="1" stop-color="#6E40DE"/>
</linearGradient>
<linearGradient id="paint1_linear_1237_44438" x1="64.3579" y1="3.81297" x2="242.8" y2="32.4123" gradientUnits="userSpaceOnUse">
<stop offset="0.03" stop-color="#3FD3ED"/>
<stop offset="0.53" stop-color="#3FD3ED"/>
<stop offset="1" stop-color="#6E40DE"/>
</linearGradient>
<linearGradient id="paint2_linear_1237_44438" x1="65.1473" y1="-1.11793" x2="243.589" y2="27.4814" gradientUnits="userSpaceOnUse">
<stop offset="0.03" stop-color="#3FD3ED"/>
<stop offset="0.53" stop-color="#3FD3ED"/>
<stop offset="1" stop-color="#6E40DE"/>
</linearGradient>
<linearGradient id="paint3_linear_1237_44438" x1="65.7974" y1="-5.16045" x2="244.239" y2="23.4389" gradientUnits="userSpaceOnUse">
<stop offset="0.03" stop-color="#3FD3ED"/>
<stop offset="0.53" stop-color="#3FD3ED"/>
<stop offset="1" stop-color="#6E40DE"/>
</linearGradient>
<linearGradient id="paint4_linear_1237_44438" x1="66.6382" y1="-10.4079" x2="245.08" y2="18.1968" gradientUnits="userSpaceOnUse">
<stop offset="0.03" stop-color="#3FD3ED"/>
<stop offset="0.53" stop-color="#3FD3ED"/>
<stop offset="1" stop-color="#6E40DE"/>
</linearGradient>
<linearGradient id="paint5_linear_1237_44438" x1="67.2492" y1="-14.2265" x2="245.691" y2="14.3727" gradientUnits="userSpaceOnUse">
<stop offset="0.03" stop-color="#3FD3ED"/>
<stop offset="0.53" stop-color="#3FD3ED"/>
<stop offset="1" stop-color="#6E40DE"/>
</linearGradient>
<linearGradient id="paint6_linear_1237_44438" x1="251.948" y1="13.3592" x2="319.636" y2="13.3592" gradientUnits="userSpaceOnUse">
<stop stop-color="#3FD3ED"/>
<stop offset="1" stop-color="#6E40DE"/>
</linearGradient>
<linearGradient id="paint7_linear_1237_44438" x1="254.413" y1="10.7136" x2="275.845" y2="16.1084" gradientUnits="userSpaceOnUse">
<stop stop-color="#3FD3ED"/>
<stop offset="1" stop-color="#6E40DE"/>
</linearGradient>
<linearGradient id="paint8_linear_1237_44438" x1="254.609" y1="9.93904" x2="276.036" y2="15.3338" gradientUnits="userSpaceOnUse">
<stop stop-color="#3FD3ED"/>
<stop offset="1" stop-color="#6E40DE"/>
</linearGradient>
<linearGradient id="paint9_linear_1237_44438" x1="254.806" y1="9.16447" x2="276.232" y2="14.5647" gradientUnits="userSpaceOnUse">
<stop stop-color="#3FD3ED"/>
<stop offset="1" stop-color="#6E40DE"/>
</linearGradient>
<linearGradient id="paint10_linear_1237_44438" x1="254.997" y1="8.38989" x2="276.429" y2="13.79" gradientUnits="userSpaceOnUse">
<stop stop-color="#3FD3ED"/>
<stop offset="1" stop-color="#6E40DE"/>
</linearGradient>
<linearGradient id="paint11_linear_1237_44438" x1="255.192" y1="7.61532" x2="276.623" y2="13.0155" gradientUnits="userSpaceOnUse">
<stop stop-color="#3FD3ED"/>
<stop offset="1" stop-color="#6E40DE"/>
</linearGradient>
<linearGradient id="paint12_linear_1237_44438" x1="284.746" y1="15.7967" x2="298.699" y2="15.7967" gradientUnits="userSpaceOnUse">
<stop stop-color="#3FD3ED"/>
<stop offset="1" stop-color="#6E40DE"/>
</linearGradient>
<linearGradient id="paint13_linear_1237_44438" x1="68.5143" y1="13.3594" x2="0.826172" y2="13.3594" gradientUnits="userSpaceOnUse">
<stop stop-color="#3FD3ED"/>
<stop offset="1" stop-color="#6E40DE"/>
</linearGradient>
<linearGradient id="paint14_linear_1237_44438" x1="66.0476" y1="10.7136" x2="44.6159" y2="16.1083" gradientUnits="userSpaceOnUse">
<stop stop-color="#3FD3ED"/>
<stop offset="1" stop-color="#6E40DE"/>
</linearGradient>
<linearGradient id="paint15_linear_1237_44438" x1="65.8513" y1="9.93904" x2="44.4196" y2="15.3338" gradientUnits="userSpaceOnUse">
<stop stop-color="#3FD3ED"/>
<stop offset="1" stop-color="#6E40DE"/>
</linearGradient>
<linearGradient id="paint16_linear_1237_44438" x1="65.6567" y1="9.16447" x2="44.2304" y2="14.5647" gradientUnits="userSpaceOnUse">
<stop stop-color="#3FD3ED"/>
<stop offset="1" stop-color="#6E40DE"/>
</linearGradient>
<linearGradient id="paint17_linear_1237_44438" x1="65.4602" y1="8.38989" x2="44.0338" y2="13.7901" gradientUnits="userSpaceOnUse">
<stop stop-color="#3FD3ED"/>
<stop offset="1" stop-color="#6E40DE"/>
</linearGradient>
<linearGradient id="paint18_linear_1237_44438" x1="65.2671" y1="7.61532" x2="43.8353" y2="13.0155" gradientUnits="userSpaceOnUse">
<stop stop-color="#3FD3ED"/>
<stop offset="1" stop-color="#6E40DE"/>
</linearGradient>
<linearGradient id="paint19_linear_1237_44438" x1="35.7131" y1="15.7967" x2="21.7598" y2="15.7967" gradientUnits="userSpaceOnUse">
<stop stop-color="#3FD3ED"/>
<stop offset="1" stop-color="#6E40DE"/>
</linearGradient>
</defs>
</svg>

<svg width="320" height="23" fill="none" xmlns="http://www.w3.org/2000/svg"><path d="m80.887 4.937.431-2.995-.763-.889h6l-.546 3.884h1.01l-.366 2.727h-1.042l-.458 3.273.796-.245-.458 3.18-.763.24-.928 6.83a2.34 2.34 0 0 1-.823 1.45c-.427.36-.97.555-1.528.546h-4.74l2.045-2.728.611-4.402-1.74.546.459-3.208 1.712-.545.699-4.98h-1.637l.366-2.728zM93.62 3.53h2.656l.126-.764-1.162-1.162h6.18l-.278 1.926h3.731l-.398 2.902h-3.726l-.371 2.443h3.028l-.399 2.902h-3.022l-.338 2.444h3.022l-.425 2.902h-3.022l-.338 2.444h3.758l-.398 2.874H90.941l-.06.486h-4.768l2.351-16.8-.976.305.49-3.48 6-1.959zM91.36 19.567h2.683l.338-2.444h-2.689zm.763-5.346h2.657l.332-2.444h-2.656zm.731-5.346h2.69l.337-2.443h-2.661z" fill="url(#prefix__a)"/><path d="m109.054 4.293-.949-1.091h10.757l.153-1.09-.982-1.163h7.516l-.332 2.231h7.484l-.399 2.902h-18.393l-3.633 16.834h-5.204z" fill="url(#prefix__b)"/><path d="m133.092 21.89 1.98-10.751h2.842l-2.013 10.751zM146.08 4.386l-2.902.245-.339 2.531h3.273l-.431 3.12h-3.327l-1.773 12.71h-4.184l1.773-12.71h-3.425l.425-3.12h3.486l.305-2.182-3.273.273.431-3.114 10.364-.884zm-4.582 17.504 1.036-10.751h2.842l-1.091 10.751zm7.849 1.01h-4.555l2.908-8.025h4.282zm9.819-9.105H146.32l1.56-11.03-.731-1.221h13.746zm-3.819-2.934.884-6.382h-4.397l-.889 6.382zm2.989 12.098h-4.276l-.578-8.034h4.276z" fill="url(#prefix__c)"/><path d="m161.965 22.992 5.378-9.503h-2.874l.431-2.934h20.902l-1.467 10.418a2.23 2.23 0 0 1-.807 1.435c-.435.38-.994.587-1.571.584h-6.061l2.728-2.842.916-6.66h-6.393l-5.378 9.502zm6.546-13.294h-5.815l6.447-8.002-.578-.703h6.966zM183.664.971l4.582 8.727h-5.815L177.849.971z" fill="url(#prefix__d)"/><path d="m199.843 10.86.159-1.162h-8.101l.306-2.318h8.127l.093-.584h5.804l-.093.584h8.128l-.306 2.318h-8.182l-.152 1.162h9.867l-.305 2.324h-4.064l-.186 1.162h3.486l-.371 2.596h-3.48l-.546 4.031a2.4 2.4 0 0 1-2.383 2.019h-6.022l2.727-2.842.431-3.208h-15.077l.366-2.596h15.093l.185-1.162h-15.671l.305-2.324zm-1.587-8.727h5.717l-.306 2.323h-2.383l.976 1.74h-4.642l-.856-1.527-.89 1.527h-5.22l2.564-4.429-.671-.796h6.388zM200.7 21.29h-6.382l-2.417-3.486h6.388zm9.748-19.157h6.294l-.305 2.323h-2.968l.982 1.74h-4.647l-.857-1.527-.883 1.527h-5.226l2.569-4.429-.671-.796h6.382z" fill="url(#prefix__e)"/><path d="m226.485 21.966-8.766.578.398-2.902 8.798-.578zM219.732 8.05l3.976-6.268-.644-.763h6.377l-4.489 7.025h3.485l-4.451 6.972h3.48l-.392 2.901h-8.728l.398-2.901 2.597-4.064h-2.013zm18.055 14.94-.764-1.314-.884 1.314h-4.947l3.387-5.53-1.401-2.444-2.182 7.974h-4.282l5.105-18.513h-1.773l.399-2.902h14.433l-.398 2.902-1.893 3.447h1.986l-.431 2.908-4.277 6.475 3.213 5.683zm-1.708-18.513-1.925 6.966h2.444l.791 1.461 1.287-2.072h-2.477l2.782-6.355z" fill="url(#prefix__f)"/><path d="m252.139 10.157 6.322 6.322h24.295l3.224-3.223h11.09l2.771 2.77h19.795" stroke="url(#prefix__g)" stroke-miterlimit="10"/><path d="M257.413 9.17h-2.067l5.313 5.416h2.062z" fill="url(#prefix__h)"/><path d="M260.681 9.17h-2.068l5.313 5.416h2.062z" fill="url(#prefix__i)"/><path d="M263.948 9.17h-2.067l5.313 5.416h2.062z" fill="url(#prefix__j)"/><path d="M267.21 9.17h-2.062l5.313 5.416h2.062z" fill="url(#prefix__k)"/><path d="M270.476 9.17h-2.062l5.313 5.416h2.062z" fill="url(#prefix__l)"/><path d="m284.746 16.839 2.133-2.084h9.502l2.318 2.045z" fill="url(#prefix__m)"/><path d="M68.318 10.158 62 16.48H37.706l-3.224-3.224h-11.09l-2.77 2.77H.826" stroke="url(#prefix__n)" stroke-miterlimit="10"/><path d="M63.048 9.17h2.067l-5.313 5.416H57.74z" fill="url(#prefix__o)"/><path d="M59.78 9.17h2.067l-5.312 5.416h-2.062z" fill="url(#prefix__p)"/><path d="M56.515 9.17h2.067l-5.313 5.416h-2.062z" fill="url(#prefix__q)"/><path d="M53.252 9.17h2.062l-5.313 5.416H47.94z" fill="url(#prefix__r)"/><path d="M49.983 9.17h2.062l-5.313 5.416H44.67z" fill="url(#prefix__s)"/><path d="m35.713 16.839-2.138-2.084h-9.497L21.76 16.8z" fill="url(#prefix__t)"/><defs><linearGradient id="prefix__a" x1="63.656" y1="8.21" x2="242.097" y2="36.815" gradientUnits="userSpaceOnUse"><stop offset=".03" stop-color="#fff"/><stop offset=".05" stop-color="#F2FCFE"/><stop offset=".11" stop-color="#C3F1F9"/><stop offset=".17" stop-color="#9AE8F6"/><stop offset=".24" stop-color="#79E0F2"/><stop offset=".31" stop-color="#60DAF0"/><stop offset=".38" stop-color="#4DD6EE"/><stop offset=".45" stop-color="#43D4ED"/><stop offset=".53" stop-color="#3FD3ED"/><stop offset="1" stop-color="#6E40DE"/></linearGradient><linearGradient id="prefix__b" x1="64.358" y1="3.813" x2="242.8" y2="32.412" gradientUnits="userSpaceOnUse"><stop offset=".03" stop-color="#3FD3ED"/><stop offset=".53" stop-color="#3FD3ED"/><stop offset="1" stop-color="#6E40DE"/></linearGradient><linearGradient id="prefix__c" x1="65.147" y1="-1.118" x2="243.589" y2="27.481" gradientUnits="userSpaceOnUse"><stop offset=".03" stop-color="#3FD3ED"/><stop offset=".53" stop-color="#3FD3ED"/><stop offset="1" stop-color="#6E40DE"/></linearGradient><linearGradient id="prefix__d" x1="65.797" y1="-5.16" x2="244.239" y2="23.439" gradientUnits="userSpaceOnUse"><stop offset=".03" stop-color="#3FD3ED"/><stop offset=".53" stop-color="#3FD3ED"/><stop offset="1" stop-color="#6E40DE"/></linearGradient><linearGradient id="prefix__e" x1="66.638" y1="-10.408" x2="245.08" y2="18.197" gradientUnits="userSpaceOnUse"><stop offset=".03" stop-color="#3FD3ED"/><stop offset=".53" stop-color="#3FD3ED"/><stop offset="1" stop-color="#6E40DE"/></linearGradient><linearGradient id="prefix__f" x1="67.249" y1="-14.226" x2="245.691" y2="14.373" gradientUnits="userSpaceOnUse"><stop offset=".03" stop-color="#3FD3ED"/><stop offset=".53" stop-color="#3FD3ED"/><stop offset="1" stop-color="#6E40DE"/></linearGradient><linearGradient id="prefix__g" x1="251.948" y1="13.359" x2="319.636" y2="13.359" gradientUnits="userSpaceOnUse"><stop stop-color="#3FD3ED"/><stop offset="1" stop-color="#6E40DE"/></linearGradient><linearGradient id="prefix__h" x1="254.413" y1="10.714" x2="275.845" y2="16.108" gradientUnits="userSpaceOnUse"><stop stop-color="#3FD3ED"/><stop offset="1" stop-color="#6E40DE"/></linearGradient><linearGradient id="prefix__i" x1="254.609" y1="9.939" x2="276.036" y2="15.334" gradientUnits="userSpaceOnUse"><stop stop-color="#3FD3ED"/><stop offset="1" stop-color="#6E40DE"/></linearGradient><linearGradient id="prefix__j" x1="254.806" y1="9.164" x2="276.232" y2="14.565" gradientUnits="userSpaceOnUse"><stop stop-color="#3FD3ED"/><stop offset="1" stop-color="#6E40DE"/></linearGradient><linearGradient id="prefix__k" x1="254.997" y1="8.39" x2="276.429" y2="13.79" gradientUnits="userSpaceOnUse"><stop stop-color="#3FD3ED"/><stop offset="1" stop-color="#6E40DE"/></linearGradient><linearGradient id="prefix__l" x1="255.192" y1="7.615" x2="276.623" y2="13.015" gradientUnits="userSpaceOnUse"><stop stop-color="#3FD3ED"/><stop offset="1" stop-color="#6E40DE"/></linearGradient><linearGradient id="prefix__m" x1="284.746" y1="15.797" x2="298.699" y2="15.797" gradientUnits="userSpaceOnUse"><stop stop-color="#3FD3ED"/><stop offset="1" stop-color="#6E40DE"/></linearGradient><linearGradient id="prefix__n" x1="68.514" y1="13.359" x2=".826" y2="13.359" gradientUnits="userSpaceOnUse"><stop stop-color="#3FD3ED"/><stop offset="1" stop-color="#6E40DE"/></linearGradient><linearGradient id="prefix__o" x1="66.048" y1="10.714" x2="44.616" y2="16.108" gradientUnits="userSpaceOnUse"><stop stop-color="#3FD3ED"/><stop offset="1" stop-color="#6E40DE"/></linearGradient><linearGradient id="prefix__p" x1="65.851" y1="9.939" x2="44.42" y2="15.334" gradientUnits="userSpaceOnUse"><stop stop-color="#3FD3ED"/><stop offset="1" stop-color="#6E40DE"/></linearGradient><linearGradient id="prefix__q" x1="65.657" y1="9.164" x2="44.23" y2="14.565" gradientUnits="userSpaceOnUse"><stop stop-color="#3FD3ED"/><stop offset="1" stop-color="#6E40DE"/></linearGradient><linearGradient id="prefix__r" x1="65.46" y1="8.39" x2="44.034" y2="13.79" gradientUnits="userSpaceOnUse"><stop stop-color="#3FD3ED"/><stop offset="1" stop-color="#6E40DE"/></linearGradient><linearGradient id="prefix__s" x1="65.267" y1="7.615" x2="43.835" y2="13.015" gradientUnits="userSpaceOnUse"><stop stop-color="#3FD3ED"/><stop offset="1" stop-color="#6E40DE"/></linearGradient><linearGradient id="prefix__t" x1="35.713" y1="15.797" x2="21.76" y2="15.797" gradientUnits="userSpaceOnUse"><stop stop-color="#3FD3ED"/><stop offset="1" stop-color="#6E40DE"/></linearGradient></defs></svg>
